X:1
T:Golders Green, LMD
T:Golders Green, LMD
T:Anonymous, 1881
T:Public Domain Courtesy of the Cyber Hymnal™
C:Anonymous, 1881
Z:Public Domain
Z:Courtesy of the Cyber Hymnal™
%%score ( 1 2 ) ( 3 4 )
L:1/8
Q:1/4=125
M:3/4
K:A
V:1 treble 
V:2 treble 
V:3 bass 
V:4 bass 
V:1
 [CE]2 | ([CE]2 [DF]2) [CE]2 | [CA]4 [CE]2 | ([CE]2 [DF]2) [CE]2 | [A,C]4 [CE]2 | %5
 ([CE]2 [DF]2) [DG]2 | [EA]4 [EA]2 | ([EA]2 [EG]2) [EA]2 | [EB]4 [CE]2 | ([CE]2 [DF]2) [CE]2 | %10
 [Ec]4 [EB]2 | ([DA]2 F2) [FA]2 | [FA]4 F2 | [EG]4 [EG]2 | (G2 A2) [EB]2 | ([EA]2 F2) G2 | %16
 [CA]4 c2 | (c2 B2) c2 | e4 A2 | (A2 B2) c2 | F4 c2 | (c2 ^B2) c2 | e4 (cB) | (A2 G2) F2 | %24
 c4 [CE]2 | ([CE]2 [DF]2) [CE]2 | A4 A2 | ([Ac]2 [GB]2) A2 | [GB]4 [Ge]2 | ([Ae]2 [Ec]2) [EA]2 | %30
 ([FA]2 [DF]2) [DF]2 | (E2 [DF]2) [DG]2 | [CA]4 |] %33
V:2
 x2 | x6 | x6 | x6 | x6 | x6 | x6 | x6 | x6 | x6 | x6 | x2 F2 x2 | x4 F2 | x6 | E4 x2 | %15
 x2 F2 (EC) | x6 | x6 | x6 | x6 | x6 | x6 | x6 | x6 | x6 | x6 | (C2 E2) A2 | x4 A2 | x6 | x6 | x6 | %31
 E2 x4 | x4 |] %33
V:3
 [A,,A,]2 | [A,,A,]4 [A,,A,]2 | [A,,E,]4 [A,,A,]2 | [A,,A,]4 [A,,A,]2 | [A,,E,]4 [A,,A,]2 | %5
 A,4 [B,,B,]2 | [A,,C]4 [A,C]2 | ([A,C]2 B,2) A,2 | [E,G,]4 [A,,A,]2 | [A,,A,]4 [A,,A,]2 | %10
 A,4 [E,G,]2 | D,2 [B,,D]2 [D,D]2 | [D,D]4 [^D,B,]2 | [E,B,]4 [E,B,]2 | (B,2 C2) [E,D]2 | %15
 ([E,C]2 [D,A,]2) (G,B,) | [A,,A,]4 [A,E]2 | E4 [A,E]2 | [CE]4 [A,C]2 | ([F,C]2 [B,D]2) [G,C]2 | %20
 [F,C]4 [A,D]2 | E4 [A,C]2 | B,4 CB, | A,2 G,2 F,2 | [C,C]4 [A,,A,]2 | [A,,A,]4 [A,,A,]2 | %26
 (A,2 C2) [A,,E]2 | ([A,,E]2 [B,,D]2) C2 | [E,B,]4 [E,B,]2 | (C2 A,2) [C,C]2 | [D,B,]4 [B,,D]2 | %31
 (C2 B,2) [E,B,]2 | [A,,A,]4 |] %33
V:4
 x2 | x6 | x6 | x6 | x6 | (A,,2 D,2) x2 | x6 | x2 B,2 A,2 | x6 | x6 | A,4 x2 | D,2 x4 | x6 | x6 | %14
 E,4 x2 | x4 B,,2 | x6 | (A,2 G,2) x2 | x6 | x6 | x6 | (A,2 G,2) x2 | B,4 (CB,) | (A,2 G,2) F,2 | %24
 x6 | x6 | A,,4 x2 | x4 (C,>D,) | x6 | A,4 x2 | x6 | E,4 x2 | x4 |] %33

